!!!COM: Anon.
!!!OTL: Palomita Blanca
!! Maria Cadilla de Martinez,
!! Juegos Y Canciones Infantiles de Puerto Rico
!! Talleres Graficos, Cas Baldrich, Brau 93, San Juan, P.R.
!! 1940.  Derechos reservados de la Autora
!! page 111
!! Andantino
**kern
*clefG2
*k[b-]
*M2/4
=1-
{8f
8a
8cc
8cc
=
4cc
8a},
{8f
*M3/4
=
4cc
2a},
*M2/4
=
{8cc
8cc
8cc
8dd
=
4cc
4b-},
=
{8b-
8b-
8b-
8b-
=
4b-
8g
8a
=
4b-
4g},
=
{8cc
8cc
8cc
8cc
*M3/4
=
4b-
2a}
==
*-
